X:8
T:New Carfino,The. JBs.008
T:New Casino,The. JBs.008
R:Jig
S:Jas.Blackshaw MS, 1837, N.Shropshire
A:North Shrops.
Z:Tony Weatherall 2006
M:6/8
L:1/8
Q:3/8=120
K:G
d2Bd2B|G2G GAB|c2Ac2A|F>AF â€œs.qu. in MSâ€D3|!
d2Bg2d|e2cg2e|dcB AGF|â€neither G dotted in MSâ€G3G3::!
FAc cAF|GBd dBG|FAc cAF|GBdâ€not dotted in MSâ€ d3|!
ece ege|dBd dgd|edc BcA|â€neither G dotted in MSâ€G3G3:|

